src/helpers/heroicons/outline/arrows-pointing-in.svg

<svg xmlns="http://www.w3.org/2000/svg" fill="none" viewBox="0 0 24 24" stroke-width="1.5" stroke="currentColor" aria-hidden="true" data-slot="icon">
  <path stroke-linecap="round" stroke-linejoin="round" d="M9 9V4.5M9 9H4.5M9 9 3.75 3.75M9 15v4.5M9 15H4.5M9 15l-5.25 5.25M15 9h4.5M15 9V4.5M15 9l5.25-5.25M15 15h4.5M15 15v4.5m0-4.5 5.25 5.25"/>
</svg>

<svg width="24" height="24" viewBox="0 0 24 24" fill="none" xmlns="http://www.w3.org/2000/svg">
<path d="M9 9L9 4.5M9 9L4.5 9M9 9L3.75 3.75M9 15L9 19.5M9 15L4.5 15M9 15L3.75 20.25M15 9H19.5M15 9V4.5M15 9L20.25 3.75M15 15H19.5M15 15L15 19.5M15 15L20.25 20.25"  stroke-width="1.5" stroke-linecap="round" stroke-linejoin="round"/>
</svg>
